public/images/hashed/a1fc13e3d76689f366c8126339f47556.svg

<?xml version="1.0" encoding="UTF-8"?>
<svg width="80px" height="80px" viewBox="0 0 80 80" version="1.1" xmlns="http://www.w3.org/2000/svg" xmlns:xlink="http://www.w3.org/1999/xlink">
    <!-- Generator: Sketch 64 (93537) - https://sketch.com -->
    <title>Icon-Architecture/64/Arch_AWS-IoT-Device-Defender_64</title>
    <desc>Created with Sketch.</desc>
    <defs>
        <linearGradient x1="0%" y1="100%" x2="100%" y2="0%" id="linearGradient-1">
            <stop stop-color="#1B660F" offset="0%"></stop>
            <stop stop-color="#6CAE3E" offset="100%"></stop>
        </linearGradient>
    </defs>
    <g id="Icon-Architecture/64/Arch_AWS-IoT-Device-Defender_64" stroke="none" stroke-width="1" fill="none" fill-rule="evenodd">
        <g id="Icon-Architecture-BG/64/Internet-of-Things" fill="url(#linearGradient-1)">
            <rect id="Rectangle" x="0" y="0" width="80" height="80"></rect>
        </g>
        <path d="M40,30.0123292 C42.206,30.0123292 44,28.218927 44,26.0136621 C44,23.8083972 42.206,22.014995 40,22.014995 C37.794,22.014995 36,23.8083972 36,26.0136621 C36,28.218927 37.794,30.0123292 40,30.0123292 L40,30.0123292 Z M27,41.0086638 C27,38.8033989 25.206,37.0099967 23,37.0099967 C20.794,37.0099967 19,38.8033989 19,41.0086638 C19,43.2139287 20.794,45.0073309 23,45.0073309 C25.206,45.0073309 27,43.2139287 27,41.0086638 L27,41.0086638 Z M53,41.0086638 C53,43.2139287 54.794,45.0073309 57,45.0073309 C59.206,45.0073309 61,43.2139287 61,41.0086638 C61,38.8033989 59.206,37.0099967 57,37.0099967 C54.794,37.0099967 53,38.8033989 53,41.0086638 L53,41.0086638 Z M46,42.0083306 L46,61.9326891 L57.871,56.0886371 C59.799,55.1249583 61,53.1866045 61,51.0313229 L61,49.005998 L63,49.005998 L63,51.0313229 C63,53.9483505 61.375,56.5724758 58.76,57.8790403 L40.441,66.8970343 C40.303,66.9660113 40.151,67 40,67 C39.841,67 39.683,66.9620127 39.538,66.8870377 L22.226,57.8720427 C19.625,56.5724758 18,53.9483505 18,51.0313229 L18,49.005998 L20,49.005998 L20,51.0313229 C20,53.1866045 21.201,55.1249583 23.135,56.0906365 L34,61.7487504 L34,42.0083306 L28.91,42.0083306 C28.432,44.8403865 25.967,47.0066644 23,47.0066644 C19.691,47.0066644 17,44.3165611 17,41.0086638 C17,37.7007664 19.691,35.0106631 23,35.0106631 C25.967,35.0106631 28.432,37.176941 28.91,40.008997 L35,40.008997 C35.553,40.008997 36,40.4568477 36,41.0086638 L36,62.7904032 L38.997,64.350883 L39,31.9216928 C36.167,31.443852 34,28.9796734 34,26.0136621 C34,22.7057647 36.691,20.0156614 40,20.0156614 C43.309,20.0156614 46,22.7057647 46,26.0136621 C46,28.9796734 43.833,31.443852 41,31.9216928 L40.997,64.3948684 L44,62.9173609 L44,41.0086638 C44,40.4568477 44.447,40.008997 45,40.008997 L51.09,40.008997 C51.568,37.176941 54.033,35.0106631 57,35.0106631 C60.309,35.0106631 63,37.7007664 63,41.0086638 C63,44.3165611 60.309,47.0066644 57,47.0066644 C54.033,47.0066644 51.568,44.8403865 51.09,42.0083306 L46,42.0083306 Z M63,19.5068311 L63,34.0109963 L61,34.0109963 L61,20.4935022 C52.083,20.3115628 42.847,18.586138 39.936,15.8480506 C36.933,18.3932023 28.088,20.2795735 20,20.4895035 L20,34.0109963 L18,34.0109963 L18,19.5068311 C18,18.958014 18.442,18.5121626 18.991,18.5071643 C30.407,18.4071976 38.57,15.2942353 39,13.9936688 C39.001,13.9586804 39.004,13.9256914 39.008,13.8927024 C39.053,13.383872 39.479,13 40.002,13 C40.554,13 41,13.4658447 41,14.0176608 C41.248,15.2682439 48.919,18.4101966 62.008,18.5071643 C62.557,18.5111629 63,18.958014 63,19.5068311 L63,19.5068311 Z" id="AWS-IoT-Device-Defender_Icon_64_Squid" fill="#FFFFFF"></path>
    </g>
</svg>

<svg xmlns="http://www.w3.org/2000/svg" width="80" height="80"><defs><linearGradient id="a" x1="0%" x2="100%" y1="100%" y2="0%"><stop offset="0%" stop-color="#1B660F"/><stop offset="100%" stop-color="#6CAE3E"/></linearGradient></defs><g fill="none" fill-rule="evenodd"><path fill="url(#a)" d="M0 0h80v80H0z"/><path fill="#FFF" d="M40 30.012c2.206 0 4-1.793 4-3.998a4.003 4.003 0 0 0-4-3.999c-2.206 0-4 1.793-4 3.999a4.003 4.003 0 0 0 4 3.998ZM27 41.01a4.003 4.003 0 0 0-4-3.999c-2.206 0-4 1.793-4 3.999a4.003 4.003 0 0 0 4 3.998c2.206 0 4-1.793 4-3.998Zm26 0a4.003 4.003 0 0 0 4 3.998c2.206 0 4-1.793 4-3.998a4.003 4.003 0 0 0-4-3.999c-2.206 0-4 1.793-4 3.999Zm-7 1v19.924l11.871-5.844A5.626 5.626 0 0 0 61 51.03v-2.025h2v2.025a7.617 7.617 0 0 1-4.24 6.848l-18.319 9.018a.988.988 0 0 1-.903-.01l-17.312-9.015A7.61 7.61 0 0 1 18 51.032v-2.026h2v2.025a5.626 5.626 0 0 0 3.135 5.06L34 61.749v-19.74h-5.09c-.478 2.831-2.943 4.998-5.91 4.998-3.309 0-6-2.69-6-5.998a6.005 6.005 0 0 1 6-5.998c2.967 0 5.432 2.166 5.91 4.998H35a1 1 0 0 1 1 1V62.79l2.997 1.56L39 31.923c-2.833-.478-5-2.942-5-5.908a6.005 6.005 0 0 1 6-5.998c3.309 0 6 2.69 6 5.998 0 2.966-2.167 5.43-5 5.908l-.003 32.473L44 62.917V41.01a1 1 0 0 1 1-1h6.09c.478-2.832 2.943-4.998 5.91-4.998 3.309 0 6 2.69 6 5.998a6.005 6.005 0 0 1-6 5.998c-2.967 0-5.432-2.167-5.91-4.999H46Zm17-22.502V34.01h-2V20.494c-8.917-.182-18.153-1.908-21.064-4.646C36.933 18.393 28.088 20.28 20 20.49V34.01h-2V19.507a1 1 0 0 1 .991-1c11.416-.1 19.579-3.213 20.009-4.513.001-.035.004-.068.008-.101a.983.983 0 0 1 .994-.893c.552 0 .998.466.998 1.018.248 1.25 7.919 4.392 21.008 4.49a1 1 0 0 1 .992.999Z"/></g></svg>
